li/tech-mobiles.svg

<svg role="img" focusable="false" aria-hidden="true" xmlns="http://www.w3.org/2000/svg" viewBox="0 0 14 14" height="1em" width="1em">
  <path style="fill-rule:evenodd" d="m 11.2,4.6 0,-2.4055229 C 11.2,1.5389274 10.664337,1 10.003564,1 L 2.7964362,1 C 2.1367083,1 1.6,1.5347856 1.6,2.1944771 l 0,9.6110459 C 1.6,12.461073 2.1356627,13 2.7964362,13 L 7.901782,13 5.8,13 l 0,-2.4 -3,0 0,-8.4 7.2,0 0,1.8 1.2,0 0,0.6 c 0.662845,0 1.2,0.538236 1.2,1.203515 l 0,5.99297 C 12.4,12.461168 11.86754,13 11.200231,13 L 7.599769,13 C 6.9371549,13 6.4,12.461764 6.4,11.796485 l 0,-5.99297 C 6.4,5.138832 6.93246,4.6 7.599769,4.6 L 11.2,4.6 Z m -3.6,1.2 3.6,0 0,4.8 -3.6,0 0,-4.8 z m 1.8,6.6 c 0.331371,0 0.6,-0.268629 0.6,-0.6 0,-0.331371 -0.268629,-0.6 -0.6,-0.6 -0.331371,0 -0.6,0.268629 -0.6,0.6 0,0.331371 0.268629,0.6 0.6,0.6 z"/>
</svg>

<svg aria-hidden="true" xmlns="http://www.w3.org/2000/svg" viewBox="0 0 14 14" height="1em" width="1em">
  <path style="fill-rule:evenodd" d="M11.2 4.6V2.194C11.2 1.54 10.664 1 10.004 1H2.796C2.136 1 1.6 1.535 1.6 2.194v9.612C1.6 12.46 2.136 13 2.796 13h5.106H5.8v-2.4h-3V2.2H10V4h1.2v.6c.663 0 1.2.538 1.2 1.204v5.992c0 .665-.532 1.204-1.2 1.204H7.6c-.663 0-1.2-.538-1.2-1.204V5.804c0-.665.532-1.204 1.2-1.204h3.6ZM7.6 5.8h3.6v4.8H7.6V5.8zm1.8 6.6a.6.6 0 1 0 0-1.2.6.6 0 0 0 0 1.2z"/>
</svg>
